X:1
T:Leaning on Jesus
T:Leaning on Jesus
T:William Fiske Sherwin
T:Wilbur Fisk Crafts, 1874
T:Public Domain Courtesy of the Cyber Hymnal™
C:William Fiske Sherwin
Z:Public Domain
Z:Courtesy of the Cyber Hymnal™
%%score 1 ( 2 3 )
L:1/8
Q:1/4=93
M:2/4
K:Bb
V:1 treble 
V:2 bass 
V:3 bass 
V:1
 [DF]2 [B,D][DF] | [FB]2 [FA][EG] | [DF]4 | [CE]2 [A,C][CE] | [EG]2 [DF][CE] | [B,D]4 | %6
w: 1.~Wea- ry of|walk- ing a-|lone,|Long hea- vy|la- den with|sin,|
w: 2.~Fear- ing to|stand for my|Lord,|Trem- bling for|weak- ness in|prayer,|
w: 3.~Anx- ious no|long- er for|self,|Shrink- ing no|long- er from|pain,|
w: 4.~Lean- ing, I|walk in “The|Way”;|Lean- ing, “The|Truth” I shall|know;|
 [DF]2 [FB][Fc] | [Fd]2 [Ec][DB] | [EG]4 | [Gc]2 [Gc][Gd] | [Ge]2 [Fd][Ec] | [DB]4 || %12
w: Toil- ing all|night with- out|Christ,|Rest for my|soul shall I|win?|
w: Yet on the|bo- som di-|vine,|Los- ing each|sor- row and|fear.|
w: Lean- ing on|Je- sus a-|lone,|He all my|care will sus-|tain.|
w: Lean- ing on|heart throbs of|Christ,|Safe in- to|“Life” I may|go.|
"^Refrain" [DF][DF] ([B,D][CE]) | [DF]2 [FB]2 | [EG][FA] ([GB][EG]) | [EG]2 [DF]2 | %16
w: ||||
w: ||||
w: ||||
w: ||||
 [FB]2 [EA][DB] | [Fc]2 [FB][Fc] | [Fd]2 [Fe][Fd] | [Fc]4 | [Fd]2 [Ec][DB] | [DF]2 [FB][Fc] | %22
w: ||||||
w: ||||||
w: ||||||
w: ||||||
 [Fd]2 [Fc][=EB] | [FB]2 [FA]2 | [FB]2 [FA][EG] | [DF]2 [DB][Ec] | [Fd]2 [DB]>[Ec] | [DB]4 |] %28
w: ||||||
w: ||||||
w: ||||||
w: ||||||
V:2
 [B,,B,]2 [B,,F,][B,,B,] | [D,B,]2 [E,B,][E,B,] | [B,,B,]4 | [F,A,]2 [F,A,][F,A,] | %4
w: ~ ~ ~|~ ~ ~|~|~ ~ ~|
 [F,A,]2 [F,A,][F,A,] | [B,,B,]4 | [B,,B,]2 [D,B,][F,A,] | B,2 [F,A,][G,B,] | [E,B,]4 | %9
w: ~ ~ ~|~|~ ~ ~|~ ~ ~|~|
 [E,C]2 [E,C][D,=B,] | [C,C]2 [F,A,][F,A,] | [B,,B,]4 || [B,,B,][B,,B,] [B,,F,]2 | %13
w: ~ ~ ~|~ ~ ~|~|Lean- ing on|
 [B,,B,]2 [D,B,]2 | [E,B,][E,B,] [E,B,]2 | [B,,B,]2 [B,,B,]2 | [D,B,]2 [C,F,][B,,B,] | %17
w: Je- sus,|Lean- ing on|Je- sus,|One whom He|
 [F,A,]2 [F,G,][F,A,] | B,2 [A,C]B, | [F,A,]4 | [B,,B,]2 [B,,F,][B,,F,] | [B,,B,]2 [D,B,][F,A,] | %22
w: lov- eth, I|walk at His|side;|Lean- ing in|trust On the|
 B,2 [A,C][G,C] | [F,D]2 C2 | [D,B,]2 [E,B,][E,B,] | [B,,B,]2 [G,B,][G,B,] | [F,B,]2 F,>F, | %27
w: arms ev- er-|last- ing,|Lean- ing in|peace On the|heart of my|
 [B,,F,]4 |] %28
w: guide.|
V:3
 x4 | x4 | x4 | x4 | x4 | x4 | x4 | B,2 x2 | x4 | x4 | x4 | x4 || x4 | x4 | x4 | x4 | x4 | x4 | %18
 B,2 B, x | x4 | x4 | x4 | B,2 x2 | x2 (F,E,) | x4 | x4 | x2 F,>F, | x4 |] %28

